Dominus_Dark_Funeral/scalable/apps/preferences-system-splash.svg

<svg xmlns="http://www.w3.org/2000/svg" xmlns:xlink="http://www.w3.org/1999/xlink" width="48" height="48" viewBox="0 0 12.7 12.7"><defs><linearGradient id="b"><stop stop-color="#afdde9" offset="0"/><stop stop-color="#08a" offset="1"/></linearGradient><linearGradient id="c"><stop offset="0"/><stop offset="1" stop-opacity="0"/></linearGradient><linearGradient id="d"><stop offset="0" stop-color="#f95"/><stop offset="1" stop-color="#37abc8"/></linearGradient><linearGradient id="a"><stop offset="0"/><stop offset="1" stop-opacity="0"/></linearGradient><linearGradient xlink:href="#b" id="f" x1="1.756" y1="11.229" x2="8.946" y2="-.215" gradientUnits="userSpaceOnUse"/><linearGradient xlink:href="#c" id="g" x1=".996" y1="6.346" x2="11.69" y2="6.346" gradientUnits="userSpaceOnUse"/><linearGradient gradientTransform="matrix(2.14286 0 0 2.14286 29.708 -5.577)" id="e" gradientUnits="userSpaceOnUse" x1="14" x2="23" y1="10" y2="19"><stop offset="0" stop-color="#292c2f"/><stop offset="1" stop-color="#292c2f" stop-opacity=".031"/></linearGradient><linearGradient gradientTransform="matrix(.56696 0 0 .56696 -2.723 -1.475)" id="j" gradientUnits="userSpaceOnUse" x1="16" x2="16" y1="18" y2="6"><stop offset="0" stop-color="#f0f0f0"/><stop offset="1" stop-color="#fcfcfc"/></linearGradient><linearGradient gradientTransform="matrix(.56696 0 0 .56696 -2.723 -1.475)" id="i" gradientUnits="userSpaceOnUse" x1="19.514" x2="15" y1="15.555" y2="11"><stop offset="0" stop-color="#f3f3f3"/><stop offset="1" stop-color="#fcfcfc" stop-opacity="0"/></linearGradient><linearGradient xlink:href="#e" id="h" gradientUnits="userSpaceOnUse" gradientTransform="matrix(.56696 0 0 .56696 -2.723 -1.475)" x1="14" y1="10" x2="23" y2="19"/></defs><path d="M6.35.1C4.81.1 3.57.39 2.66.97A3.67 3.67 0 0 0 1 4.22c0 1.91 1.54 4.47 2.01 5.2.54.85 1.13 1.61 1.65 2.16.68.7 1.21 1.03 1.69 1.03s1.01-.33 1.69-1.03a15.2 15.2 0 0 0 1.65-2.15c.47-.74 2-3.3 2-5.21 0-1.42-.57-2.54-1.65-3.25A6.75 6.75 0 0 0 6.35.09z" fill="url(#f)"/><path d="M6.35.1C4.81.1 3.57.39 2.66.97A3.67 3.67 0 0 0 1 4.22c0 1.91 1.54 4.47 2.01 5.2.54.85 1.13 1.61 1.65 2.16.68.7 1.21 1.03 1.69 1.03s1.01-.33 1.69-1.03a15.2 15.2 0 0 0 1.65-2.15c.47-.74 2-3.3 2-5.21 0-1.42-.57-2.54-1.65-3.25A6.75 6.75 0 0 0 6.35.09zm0 .03C6.91.15 7.44.2 7.9.31a5.82 5.82 0 0 1 1.6.66 3.65 3.65 0 0 1 1.24 1.36c.14.27.25.57.32.88a4.61 4.61 0 0 1-.14 2.53c-.15.52-.36 1.04-.58 1.52-.44.97-.95 1.8-1.18 2.17a15.2 15.2 0 0 1-1.65 2.15 4.9 4.9 0 0 1-.92.78.96.96 0 0 1-.24.1.96.96 0 0 1-.24-.1 4.76 4.76 0 0 1-.92-.78 14.41 14.41 0 0 1-1.65-2.15 19.2 19.2 0 0 1-1.18-2.17c-.22-.48-.43-1-.58-1.52a4.6 4.6 0 0 1-.14-2.52 3.73 3.73 0 0 1 .84-1.64 3.65 3.65 0 0 1 1.45-1A6.83 6.83 0 0 1 6.35.13z" opacity=".2" fill="url(#g)"/><path d="M7.899 11.689c.05-.05.089-.066.14-.12a15.2 15.2 0 0 0 .973-1.167 15.2 15.2 0 0 0 .678-.982c.235-.37.735-1.195 1.176-2.166.22-.486.427-1.008.578-1.528.01-.034.006-.064.015-.097L8.753 2.923a3.402 3.402 0 1 0-4.81 4.81z" opacity=".547" fill="url(#h)"/><path d="M6.348 1.926a3.402 3.402 0 0 0-3.401 3.402A3.402 3.402 0 0 0 6.348 8.73 3.402 3.402 0 0 0 9.75 5.328a3.402 3.402 0 0 0-3.402-3.402zm0 .567a2.835 2.835 0 0 1 2.835 2.835 2.835 2.835 0 0 1-2.835 2.835 2.835 2.835 0 0 1-2.834-2.835 2.835 2.835 0 0 1 2.834-2.835z" fill="url(#i)"/><path d="M6.348 1.926a3.402 3.402 0 0 0-3.401 3.402A3.402 3.402 0 0 0 6.348 8.73a3.402 3.402 0 0 0 2.39-.985l-.397-.402a2.835 2.835 0 0 1-1.993.82 2.835 2.835 0 0 1-2.834-2.835 2.835 2.835 0 0 1 2.834-2.835z" fill="url(#j)"/></svg>

<?xml version="1.0" encoding="UTF-8" standalone="no"?>
<svg
   xmlns:dc="http://purl.org/dc/elements/1.1/"
   xmlns:cc="http://creativecommons.org/ns#"
   xmlns:rdf="http://www.w3.org/1999/02/22-rdf-syntax-ns#"
   xmlns:svg="http://www.w3.org/2000/svg"
   xmlns="http://www.w3.org/2000/svg"
   xmlns:xlink="http://www.w3.org/1999/xlink"
   xmlns:sodipodi="http://sodipodi.sourceforge.net/DTD/sodipodi-0.dtd"
   xmlns:inkscape="http://www.inkscape.org/namespaces/inkscape"
   width="48"
   height="48"
   viewBox="0 0 12.7 12.7"
   version="1.1"
   id="svg52"
   sodipodi:docname="preferences-system-splash.svg"
   inkscape:version="0.92.4 (5da689c313, 2019-01-14)">
  <metadata
     id="metadata56">
    <rdf:RDF>
      <cc:Work
         rdf:about="">
        <dc:format>image/svg+xml</dc:format>
        <dc:type
           rdf:resource="http://purl.org/dc/dcmitype/StillImage" />
        <dc:title></dc:title>
      </cc:Work>
    </rdf:RDF>
  </metadata>
  <sodipodi:namedview
     pagecolor="#ffffff"
     bordercolor="#666666"
     borderopacity="1"
     objecttolerance="10"
     gridtolerance="10"
     guidetolerance="10"
     inkscape:pageopacity="0"
     inkscape:pageshadow="2"
     inkscape:window-width="1112"
     inkscape:window-height="480"
     id="namedview54"
     showgrid="false"
     inkscape:zoom="4.9166667"
     inkscape:cx="2.1355932"
     inkscape:cy="24"
     inkscape:window-x="0"
     inkscape:window-y="25"
     inkscape:window-maximized="0"
     inkscape:current-layer="svg52" />
  <defs
     id="defs40">
    <linearGradient
       id="b">
      <stop
         stop-color="#afdde9"
         offset="0"
         id="stop2" />
      <stop
         stop-color="#08a"
         offset="1"
         id="stop4" />
    </linearGradient>
    <linearGradient
       id="c">
      <stop
         offset="0"
         id="stop7" />
      <stop
         offset="1"
         stop-opacity="0"
         id="stop9" />
    </linearGradient>
    <linearGradient
       id="d">
      <stop
         offset="0"
         stop-color="#f95"
         id="stop12" />
      <stop
         offset="1"
         stop-color="#37abc8"
         id="stop14" />
    </linearGradient>
    <linearGradient
       id="a">
      <stop
         offset="0"
         id="stop17" />
      <stop
         offset="1"
         stop-opacity="0"
         id="stop19" />
    </linearGradient>
    <linearGradient
       xlink:href="#b"
       id="f"
       x1="1.756"
       y1="11.229"
       x2="8.946"
       y2="-.215"
       gradientUnits="userSpaceOnUse" />
    <linearGradient
       xlink:href="#c"
       id="g"
       x1=".996"
       y1="6.346"
       x2="11.69"
       y2="6.346"
       gradientUnits="userSpaceOnUse" />
    <linearGradient
       gradientTransform="matrix(2.14286 0 0 2.14286 29.708 -5.577)"
       id="e"
       gradientUnits="userSpaceOnUse"
       x1="14"
       x2="23"
       y1="10"
       y2="19">
      <stop
         offset="0"
         stop-color="#292c2f"
         id="stop24" />
      <stop
         offset="1"
         stop-color="#292c2f"
         stop-opacity=".031"
         id="stop26" />
    </linearGradient>
    <linearGradient
       gradientTransform="matrix(0.56696,0,0,0.56696,-2.723,-1.475)"
       id="j"
       gradientUnits="userSpaceOnUse"
       x1="16"
       x2="16"
       y1="18"
       y2="6">
      <stop
         offset="0"
         stop-color="#f0f0f0"
         id="stop29" />
      <stop
         offset="1"
         stop-color="#fcfcfc"
         id="stop31" />
    </linearGradient>
    <linearGradient
       gradientTransform="matrix(0.56696,0,0,0.56696,-2.723,-1.475)"
       id="i"
       gradientUnits="userSpaceOnUse"
       x1="19.514"
       x2="15"
       y1="15.555"
       y2="11">
      <stop
         offset="0"
         stop-color="#f3f3f3"
         id="stop34" />
      <stop
         offset="1"
         stop-color="#fcfcfc"
         stop-opacity="0"
         id="stop36" />
    </linearGradient>
    <linearGradient
       xlink:href="#e"
       id="h"
       gradientUnits="userSpaceOnUse"
       gradientTransform="matrix(0.56696,0,0,0.56696,-2.723,-1.475)"
       x1="14"
       y1="10"
       x2="23"
       y2="19" />
  </defs>
  <path
     d="M 6.35,0.1 C 4.81,0.1 3.57,0.39 2.66,0.97 A 3.67,3.67 0 0 0 1,4.22 c 0,1.91 1.54,4.47 2.01,5.2 0.54,0.85 1.13,1.61 1.65,2.16 0.68,0.7 1.21,1.03 1.69,1.03 0.48,0 1.01,-0.33 1.69,-1.03 A 15.2,15.2 0 0 0 9.69,9.43 c 0.47,-0.74 2,-3.3 2,-5.21 0,-1.42 -0.57,-2.54 -1.65,-3.25 A 6.75,6.75 0 0 0 6.35,0.09 Z"
     id="path42"
     style="fill:url(#f)"
     inkscape:connector-curvature="0" />
  <path
     d="M 6.35,0.1 C 4.81,0.1 3.57,0.39 2.66,0.97 A 3.67,3.67 0 0 0 1,4.22 c 0,1.91 1.54,4.47 2.01,5.2 0.54,0.85 1.13,1.61 1.65,2.16 0.68,0.7 1.21,1.03 1.69,1.03 0.48,0 1.01,-0.33 1.69,-1.03 A 15.2,15.2 0 0 0 9.69,9.43 c 0.47,-0.74 2,-3.3 2,-5.21 0,-1.42 -0.57,-2.54 -1.65,-3.25 A 6.75,6.75 0 0 0 6.35,0.09 Z m 0,0.03 C 6.91,0.15 7.44,0.2 7.9,0.31 a 5.82,5.82 0 0 1 1.6,0.66 3.65,3.65 0 0 1 1.24,1.36 c 0.14,0.27 0.25,0.57 0.32,0.88 A 4.61,4.61 0 0 1 10.92,5.74 C 10.77,6.26 10.56,6.78 10.34,7.26 9.9,8.23 9.39,9.06 9.16,9.43 A 15.2,15.2 0 0 1 7.51,11.58 4.9,4.9 0 0 1 6.59,12.36 0.96,0.96 0 0 1 6.35,12.46 0.96,0.96 0 0 1 6.11,12.36 4.76,4.76 0 0 1 5.19,11.58 14.41,14.41 0 0 1 3.54,9.43 19.2,19.2 0 0 1 2.36,7.26 C 2.14,6.78 1.93,6.26 1.78,5.74 A 4.6,4.6 0 0 1 1.64,3.22 3.73,3.73 0 0 1 2.48,1.58 3.65,3.65 0 0 1 3.93,0.58 6.83,6.83 0 0 1 6.35,0.13 Z"
     id="path44"
     style="opacity:0.2;fill:url(#g)"
     inkscape:connector-curvature="0" />
  <path
     d="m 7.899,11.689 c 0.05,-0.05 0.089,-0.066 0.14,-0.12 A 15.2,15.2 0 0 0 9.012,10.402 15.2,15.2 0 0 0 9.69,9.42 C 9.925,9.05 10.425,8.225 10.866,7.254 11.086,6.768 11.293,6.246 11.444,5.726 11.454,5.692 11.45,5.662 11.459,5.629 L 8.753,2.923 a 3.402,3.402 0 1 0 -4.81,4.81 z"
     id="path46"
     style="opacity:0.547;fill:url(#h)"
     inkscape:connector-curvature="0" />
  <path
     d="M 6.348,1.926 A 3.402,3.402 0 0 0 2.947,5.328 3.402,3.402 0 0 0 6.348,8.73 3.402,3.402 0 0 0 9.75,5.328 3.402,3.402 0 0 0 6.348,1.926 Z m 0,0.567 A 2.835,2.835 0 0 1 9.183,5.328 2.835,2.835 0 0 1 6.348,8.163 2.835,2.835 0 0 1 3.514,5.328 2.835,2.835 0 0 1 6.348,2.493 Z"
     id="path48"
     style="fill:url(#i)"
     inkscape:connector-curvature="0" />
  <path
     d="M 6.348,1.926 A 3.402,3.402 0 0 0 2.947,5.328 3.402,3.402 0 0 0 6.348,8.73 3.402,3.402 0 0 0 8.738,7.745 L 8.341,7.343 A 2.835,2.835 0 0 1 6.348,8.163 2.835,2.835 0 0 1 3.514,5.328 2.835,2.835 0 0 1 6.348,2.493 Z"
     id="path50"
     style="fill:url(#j)"
     inkscape:connector-curvature="0" />
</svg>
